X:1
T:Mein G'müt ist mir verwirret
T:Mein G'müt ist mir verwirret
T:Hans Leo Hassler (1564-1612)
T:Creative Commons Attribution 4.0 International (CC BY 4.0) Copyright © 2019 Provided to the Choral Public Domain Library (http://www.cpdl.org) by the Freshman Chorus of St. John's College of Annapolis. Edition may be freely distributed, duplicated, performed, or recorded. 
T:Creative Commons Attribution 4.0 International (CC BY 4.0) Copyright © 2019 Provided to the Choral Public Domain Library (http://www.cpdl.org) by the Freshman Chorus of St. John's College of Annapolis. Edition may be freely distributed, duplicated, performed, or recorded. 
C:Hans Leo Hassler (1564-1612)
Z:Creative Commons Attribution 4.0 International (CC BY 4.0) Copyright © 2019
Z:Provided to the Choral Public Domain Library (http://www.cpdl.org)
Z:by the Freshman Chorus of St. John's College of Annapolis.
Z:Edition may be freely distributed, duplicated, performed, or recorded.
Z:
%%score ( 1 2 ) 3 ( 4 5 )
L:1/8
M:6/8
K:Eb
V:1 treble nm="S"
V:2 treble 
V:3 treble-8 nm="T I"
V:4 bass nm="T II"
V:5 bass 
V:1
 G2 | c2 B A2 G | F2 G2 d2 |[M:6/8] e2 e d2 d |[M:3/4] c4 G2 |[M:6/8] c2 B A2 G |[M:3/4] F2 G2 d2 | %7
[M:6/8] e2 e d2 d |[M:2/4] c3 e | dB cd | e3 B | cB cA |[M:3/4] G4 |: e2 |[M:6/8] d2 f e2 d | %15
[M:3/4] c2 d2 G2 |[M:6/8] A2 G F2 F |[M:3/4] G4 :| %18
V:2
 E2 | E2 D E2 E | D2 E2 F2 |[M:6/8] G2 G G2 G |[M:3/4] G4 E2 |[M:6/8] E2 D E2 E |[M:3/4] D2 E2 F2 | %7
w: Mein|G'müt ist mir ver-|wir- ret, das|macht ein Jung- frau|zart; bin|ganz und gar ver-|ir- ret, mein|
w: ~Ach,|dass sie mich tät|fra- gen, was|doch die Ur- sach|sei, wann|ich fuhr sol- che|Kla- gen, ich|
w: ~Al-|lein ich muss auf-|ge- ben, und|all- zeit trau- rig|sein, sollt's|mir gleich kost'n das|Le- ben, das|
[M:6/8] G2 G G2 G |[M:2/4] G3 G | BB AF | G3 G | AB EF |[M:3/4] E4 |: G2 |[M:6/8] G2 F G2 F | %15
w: Herz das kränkt sich|hart. Hab'|Tag und Nacht kein|Ruh', führ|all- zeit gro- sse|Klag,|tu|seuf- zen stets und|
w: wollt ihr's sa- gen|frei, Dass|sie al- lein die|ist, die|mich so sehr ver-|wundt.|Könnt|ich ihr Herz er-|
w: ist mir gröss- te|Pein. Denn|ich bin ihr zu|schlecht, da-|rum sie mein nicht|acht.|Gott|woll's für Leid be-|
[M:3/4] F2 F2 E2 |[M:6/8] E2 E D2 D |[M:3/4] E4 :| %18
w: wei- nen, in|Trau- ern schier ver-|zag.|
w: wei- chen, wurd|ich bald wie- der|g'sund.|
w: wah- ren, durch|sein- e Gött- lich|Macht.|
V:3
 b2 | a2 f c'2 b | b2 b2 b2 |[M:6/8] b2 c' d'2 d' |[M:3/4] =e'4 z b |[M:6/8] a2 f c'2 b | %6
[M:3/4] b2 b2 b2 |[M:6/8] b2 c' d'2 _d' |[M:2/4] =e'3 _e' | f'g' f'f' | e'3 e' | e'e' c'c' | %12
[M:3/4] c4 |: c2 |[M:6/8] d'2 d' b2 b |[M:3/4] c'2 b2 b2 |[M:6/8] c'2 b b2 b |[M:3/4] b4 :| %18
V:4
 F2 | D2 A D2 D | E2 D2 z A |[M:6/8] F2 F =A2 A |[M:3/4] B4 z G |[M:6/8] D2 A D2 D | %6
[M:3/4] E2 D2 z A |[M:6/8] F2 F =A2 A |[M:2/4] B3 B | cd BA | A3 A | GF GG |[M:3/4] B4 |: F2 | %14
[M:6/8] A2 A F2 A |[M:3/4] =G2 A2 F2 |[M:6/8] D2 D E2 A |[M:3/4] F4 :| %18
V:5
 D2 | G,2 A, B,2 D | A,2 D2 A,2 |[M:6/8] D2 B, F2 F |[M:3/4] B,4 D2 |[M:6/8] G,2 A, B,2 D | %6
[M:3/4] A,2 D2 A,2 |[M:6/8] D2 B, F2 F |[M:2/4] B,3 B | AF GA | D3 D | GD GE |[M:3/4] B,4 |: B,2 | %14
[M:6/8] F2 C D2 A, |[M:3/4] E2 A,2 D2 |[M:6/8] B,2 D A,2 A, |[M:3/4] D4 :| %18

